packages/kaspersky-hexa-ui-icons/src/iconsSVGs/64x42/FlagAf.svg

<svg xmlns="http://www.w3.org/2000/svg" width="64" height="42" fill="none" viewBox="0 0 64 42"><g clip-path="url(#a)"><rect width="64" height="42" fill="#fff" rx="5"/><path fill="#1ab11f" d="M30.4763-1.8571h33.5238v45.7142H30.4763z"/><path fill="#262626" fill-rule="evenodd" d="M0 43.8571h21.3333V-1.8571H0z" clip-rule="evenodd"/><path fill="#dc0d18" fill-rule="evenodd" d="M21.3334 43.8571h21.3333V-1.8571H21.3334z" clip-rule="evenodd"/><path fill="#fff" d="M27.429 19.4762c0-.8418-.6824-1.5242-1.5242-1.5242s-1.5242.6824-1.5242 1.5242zm.7515 6.5941c.7281.4225 1.6609.1747 2.0833-.5534.4225-.7281.1747-1.6608-.5534-2.0833zm6.2782-2.7396c-.7092.4536-.9164 1.3962-.4628 2.1053s1.3961.9164 2.1053.4628zm5.161-3.8545c0-.8418-.6824-1.5242-1.5242-1.5242s-1.5242.6824-1.5242 1.5242zm-15.2391 0c0 2.8186 1.5313 5.2777 3.7999 6.5941l1.5299-2.6367c-1.3673-.7934-2.2814-2.2696-2.2814-3.9574zm11.7206 6.4226c2.1126-1.3511 3.5185-3.7222 3.5185-6.4226h-3.0484c0 1.6174-.8389 3.0399-2.1126 3.8545z"/><ellipse cx="32" cy="18" fill="#fff" rx="3" ry="5"/></g><defs><clipPath id="a"><rect width="64" height="42" fill="#fff" rx="5"/></clipPath></defs></svg>

<svg width="64" height="42" viewBox="0 0 64 42" fill="none" xmlns="http://www.w3.org/2000/svg">
<g clip-path="url(#clip0_37941_2177)">
<rect width="64" height="42" rx="5" fill="white"/>
<rect x="30.4763" y="-1.85712" width="33.5238" height="45.7142" fill="#1AB11F"/>
<path fill-rule="evenodd" clip-rule="evenodd" d="M0 43.8571H21.3333V-1.85712H0V43.8571Z" fill="#262626"/>
<path fill-rule="evenodd" clip-rule="evenodd" d="M21.3334 43.8571H42.6667V-1.85712H21.3334V43.8571Z" fill="#DC0D18"/>
<path opacity="0.75" d="M27.429 19.4762C27.429 18.6344 26.7466 17.952 25.9048 17.952C25.0631 17.952 24.3806 18.6344 24.3806 19.4762H27.429ZM28.1805 26.0703C28.9086 26.4928 29.8414 26.245 30.2638 25.5169C30.6863 24.7888 30.4385 23.8561 29.7104 23.4336L28.1805 26.0703ZM34.4587 23.3307C33.7495 23.7843 33.5423 24.7269 33.9959 25.436C34.4494 26.1452 35.392 26.3524 36.1012 25.8988L34.4587 23.3307ZM39.6197 19.4762C39.6197 18.6344 38.9373 17.952 38.0955 17.952C37.2537 17.952 36.5713 18.6344 36.5713 19.4762H39.6197ZM24.3806 19.4762C24.3806 22.2948 25.9119 24.7539 28.1805 26.0703L29.7104 23.4336C28.3431 22.6402 27.429 21.164 27.429 19.4762H24.3806ZM36.1012 25.8988C38.2138 24.5477 39.6197 22.1766 39.6197 19.4762H36.5713C36.5713 21.0936 35.7324 22.5161 34.4587 23.3307L36.1012 25.8988Z" fill="white"/>
<ellipse cx="31.9999" cy="17.9524" rx="3.04761" ry="4.57142" fill="white" fill-opacity="0.5"/>
</g>
<defs>
<clipPath id="clip0_37941_2177">
<rect width="64" height="42" rx="5" fill="white"/>
</clipPath>
</defs>
</svg>
